X:1
T:I Have Given My Cares to Jesus
T:I Have Given My Cares to Jesus
T:Josiah Carley
T:Josiah Carley, 2011
T:© 2011 Josiah Carley. This hymn may be freely reproduced for Christian worship or devotions provided it is not altered, &amp; this notice is on each copy. All other rights reserved.
T:© 2011 Josiah Carley. This hymn may be freely reproduced for Christian worship or devotions provided it is not altered, &amp; this notice is on each copy. All other rights reserved.
C:Josiah Carley
Z:© 2011 Josiah Carley. This hymn may be freely reproduced for Christian worship or devotions
Z:provided it is not altered, & this notice is on each copy. All other rights reserved.
%%score ( 1 2 ) 3
L:1/8
Q:3/8=62
M:6/8
K:G
V:1 treble 
V:2 treble 
V:3 bass 
V:1
 [B,D]2 [B,D] [DG][B,D][DG] | [DB]2 [CA] [B,G]2 [B,D] | [CE]2 [CE] [B,D]2 [DG] | (GA)[EB] [FA]3 | %4
w: 1.~I have gi- ven my|cares to Je- sus,|And He took them|from * my hand;|
w: 2.~I have gi- ven my|cares to Je- sus;|Great- est joy and|peace * is mine;|
w: 3.~I have gi- ven my|cares to Je- sus,|When the storms up-|on * me pressed,|
w: 4.~I have gi- ven my|cares to Je- sus;|Child- like trust He|did * im- part;|
w: 5.~I have gi- ven my|cares to Je- sus;|Now I know that|all * is well;|
 [DB]2 [DB] ([DB][CA])[DB] | [Ec]2 [DB] [CA]2 [B,G] | [Ec]2 [DB] [CA]2 [B,G] | (GA)[EB] [FA]3 || %8
w: On the al- * tar|of sur- ren- der—|There I left them,|where * He stands.|
w: Now I know * the|bles- sèd pro- mise,|Of His sa- ving|grace * di- vine.|
w: And He gave * me|His sal- va- tion,|Stead- fast re- fuge,|per- * fect rest.|
w: Ne- ver did * a|song so joy- ful|Ring as now with-|in * my heart.|
w: On I go * to|be His wit- ness,|Of His love to|ev- * er tell.|
"^Refrain" [Bd]2 [Bd] [Bd]2 [GB] | [DG]2 [DG] [DG]2 [GB] | [CE]2 [CE] [B,D]2 [DG] | %11
w: |||
w: |||
w: What as- su- rance!|what a priv’- lege!|What sal- va- tion,|
w: |||
w: |||
 (GA)[EB] [FA]3 | [Bd]2 [Bd] [Bd]2 [GB] | [DG]2 [DG] [DG]2 [DB] | [Ec]2 [Ec] [DB]2 [DG] | %15
w: ||||
w: ||||
w: full * and grand!|He has lif- ted|ev- ’ry bur- den,|Soothed and helped me|
w: ||||
w: ||||
 (FG)[CA] [B,G]3 |] %16
w: |
w: |
w: with * His hand.|
w: |
w: |
V:2
 x6 | x6 | x6 | ^C2 x4 | x6 | x6 | x6 | ^C2 x4 || x6 | x6 | x6 | ^C2 x4 | x6 | x6 | x6 | C2 x4 |] %16
V:3
 [G,,G,]2 [G,,G,] [G,,G,][G,,G,][G,,G,] | [G,,G,]2 [G,,G,] [G,,G,]2 [G,,G,] | %2
 [C,G,]2 [C,G,] [G,,G,]2 [G,,G,] | [A,,A,]2 [A,,A,] [D,A,]3 | [G,,G,]2 [G,,G,] [G,,G,]2 [G,,G,] | %5
 [C,G,]2 [C,G,] [G,,G,]2 [G,,G,] | [C,G,]2 [C,G,] [G,,G,]2 [G,,G,] | [A,,A,]2 [A,,A,] [D,A,]3 || %8
 [G,,G,]2 [G,,G,] [G,,G,]2 [G,,G,] | [G,,G,]2 [G,,G,] [G,,G,]2 [G,,G,] | %10
 [C,G,]2 [C,G,] [G,,G,]2 [G,,G,] | [A,,A,]2 [A,,A,] [D,A,]3 | [G,,G,]2 [G,,G,] [G,,G,]2 [G,,G,] | %13
 [G,,G,]2 [G,,G,] [G,,G,]2 [G,,G,] | [C,G,]2 [C,G,] [G,,G,]2 [G,,G,] | [D,A,]2 [D,A,] [G,,G,]3 |] %16

